src/public/favicon.svg

<svg viewBox="0 0 64 64" xmlns="http://www.w3.org/2000/svg" xml:space="preserve" style="fill-rule:evenodd;clip-rule:evenodd;stroke-linejoin:round;stroke-miterlimit:2">
  <path style="fill:#5c288e" d="M0 0h112.12v94H0z" transform="scale(.57082 .68085)"/>
  <path d="M112.12 22.656C112.12 10.152 99.56 0 84.09 0H28.03C12.56 0 0 10.152 0 22.656v45.313c0 12.504 12.56 22.656 28.03 22.656h56.06c15.47 0 28.03-10.152 28.03-22.656V22.656Z" style="fill:#e5b75b" transform="matrix(.51914 0 0 .64227 2.897 2.897)"/>
  <path d="m56.065 0-.019.01-.041.002c-8.346.011-16.68 3.261-22.89 9.258-3.044 2.937-5.552 6.59-7.328 10.646-.533-.403-1.067-.797-1.596-1.207-.152-3.498-2.025-6.956-5.051-8.705-4.579-2.644-11.262-1.06-13.957 3.61h-.002a9.852 9.852 0 0 0-1.227 3.86 9.85 9.85 0 0 0-2.727 2.985l-.003.005C-1.472 25.133.5 31.71 5.078 34.353l.007.005c3.026 1.739 6.954 1.631 10.056.012a180.044 180.044 0 0 1 8.032 3.516c.238 1.891.629 3.76 1.171 5.587-1.205 4.455-.714 8.978.537 12.929a188.765 188.765 0 0 1-9.733 4.31c-3.105-1.619-7.037-1.729-10.063.02h-.004c-4.577 2.64-6.549 9.222-3.85 13.889l.002.004c.683 1.184 1.634 2.186 2.73 2.991a9.884 9.884 0 0 0 1.224 3.85l.005.006c2.697 4.669 9.378 6.253 13.957 3.61a.017.017 0 0 0 .005-.002c3.022-1.749 4.893-5.208 5.043-8.704a188.351 188.351 0 0 1 10.23-7.371c.351.193.69.393 1.056.559l1.117 2.441c1.206 2.624 2.579 3.399 3.866 4.164 1.29.764 2.652 1.295 4.203 1.744 3.099.898 6.926 1.408 11.392 1.408h.125c4.468 0 8.29-.51 11.391-1.408 1.549-.448 2.917-.98 4.202-1.744 1.289-.765 2.663-1.539 3.864-4.164l1.152-2.513c.31-.144.602-.323.899-.488 3.493 2.341 6.906 4.8 10.233 7.371.151 3.499 2.019 6.955 5.04 8.702l.008.003c4.576 2.642 11.261 1.06 13.956-3.611a9.857 9.857 0 0 0 3.959-6.849l.003-.002c2.695-4.67.722-11.249-3.856-13.892-3.027-1.746-6.96-1.64-10.065-.019a185.903 185.903 0 0 1-9.734-4.312c1.253-3.956 1.742-8.483.533-12.945a34.839 34.839 0 0 0 1.17-5.57 187.117 187.117 0 0 1 8.036-3.516c3.105 1.618 7.03 1.728 10.055-.015l.007-.002c4.578-2.644 6.551-9.22 3.854-13.89l-.002-.009c-.684-1.18-1.634-2.182-2.729-2.984-.15-1.352-.544-2.676-1.227-3.859a.008.008 0 0 1-.002-.005c-1.715-2.973-5.047-4.896-8.428-4.999a10.473 10.473 0 0 0-5.529 1.394h-.003c-3.025 1.749-4.898 5.203-5.051 8.704-.528.412-1.063.802-1.594 1.207-1.776-4.056-4.286-7.708-7.327-10.646C72.78 3.252 64.428 0 56.066 0h-.001Zm1.238 14.986c2.189.03 4.3.245 6.313.618 5.995 1.12 10.763 3.58 13.858 5.632 3.126 2.074 4.622 3.737 4.466 3.944-.208.274-2.047-.927-5.277-2.552-3.202-1.607-7.87-3.651-13.479-4.553a40.313 40.313 0 0 0-5.918-.512 44.22 44.22 0 0 0-9.517.921c-4.599.944-8.352 2.412-11.038 3.581-2.73 1.399-4.412 2.112-4.556 1.875-.144-.236 1.275-1.392 3.829-3.173 2.575-1.568 6.397-3.416 11.232-4.616a39.73 39.73 0 0 1 10.088-1.165h-.001ZM37.832 70.442c-.014-.004.04.008.027.003.013.004.02.01.034.014l-.061-.017Z" style="fill:#b10887;fill-rule:nonzero" transform="matrix(.47918 0 0 .59283 5.137 5.137)"/>
  <path d="M14.254 16.501c-1.824-.071-3.516.843-4.404 2.379-.785 1.363-.836 3.04-.137 4.493-1.605.122-3.029 1.004-3.817 2.363-1.333 2.307-.462 5.343 1.931 6.726 2.289 1.32 5.21.689 6.626-1.429a189.925 189.925 0 0 1 13.745 6.003 17.059 17.059 0 0 0-.793 5.003c.005 2.795.709 5.563 2.074 8.157a5.922 5.922 0 0 0-.836 1.552c-.939 2.677-.358 5.592 1.157 8.408.331.616.731 1.23 1.184 1.828-5.308 2.657-10.773 5.139-16.526 7.375-1.415-2.121-4.339-2.753-6.63-1.431-2.393 1.382-3.265 4.418-1.933 6.725l.001.003c.787 1.36 2.213 2.243 3.819 2.365-.697 1.453-.645 3.129.14 4.491 1.332 2.307 4.396 3.069 6.789 1.689 2.287-1.323 3.202-4.168 2.075-6.454 5.236-4.205 10.552-7.968 15.957-11.479 1.122.654 2.4 1.184 3.894 1.489h.001l2.223 3.834c.97 1.673 6.858 3.275 15.377 3.275h.127c8.52 0 14.41-1.602 15.381-3.275l2.24-3.868a12.656 12.656 0 0 0 3.75-1.461c5.408 3.512 10.726 7.278 15.964 11.483-1.128 2.286-.213 5.132 2.075 6.456 2.394 1.382 5.46.62 6.792-1.688l.001-.001c.782-1.361.833-3.035.136-4.485 1.608-.122 3.035-1.005 3.822-2.367l.001-.001c1.332-2.308.459-5.344-1.934-6.726-2.29-1.321-5.214-.689-6.629 1.432-5.757-2.239-11.227-4.722-16.538-7.379.455-.601.854-1.216 1.184-1.834 1.515-2.818 2.097-5.731 1.159-8.41a5.803 5.803 0 0 0-.841-1.561c1.366-2.591 2.071-5.357 2.079-8.15a17.088 17.088 0 0 0-.786-4.992 189.954 189.954 0 0 1 13.748-5.999c1.416 2.118 4.335 2.748 6.624 1.43 2.394-1.382 3.267-4.417 1.936-6.725-.788-1.36-2.213-2.242-3.819-2.363.698-1.453.646-3.13-.139-4.492-.826-1.43-2.353-2.328-4.046-2.381l-.013-.009a5.178 5.178 0 0 0-2.741.694c-2.291 1.323-3.207 4.171-2.077 6.458a189.922 189.922 0 0 1-11.706 8.645c-4.837-7.464-14.837-12.21-25.745-12.22l-.006.006c-10.907.004-20.911 4.743-25.756 12.203a189.112 189.112 0 0 1-11.695-8.634c1.129-2.286.213-5.134-2.077-6.457a5.197 5.197 0 0 0-2.389-.694h.001Z" style="fill:#e5b75b" transform="matrix(.47918 0 0 .59283 5.137 5.137)"/>
  <path d="M54.115 19.059c-6.471 0-13.152.561-18.776 6.055-4.566 3.071-7.87 7.088-9.511 11.561-1.116-.153-6.042 1.91-1.131 5.993-.008.149-.014.301-.02.45.004 3.062.775 6.093 2.269 8.933a6.373 6.373 0 0 0-.915 1.697c-1.028 2.931-.395 6.123 1.266 9.208s4.644 6.215 9.602 7.228h.002l2.434 4.203c.764 1.32 4.359 2.59 9.782 3.201h-.469l3.762 6.517 3.761 6.518 3.765-6.518 3.761-6.517h-.324c5.423-.611 9.016-1.881 9.78-3.201l2.454-4.235c4.864-1.05 7.803-4.144 9.444-7.196 1.661-3.085 2.295-6.28 1.267-9.213a6.358 6.358 0 0 0-.92-1.704c1.495-2.838 2.267-5.867 2.275-8.925a18.68 18.68 0 0 0-.126-1.949c2.944-2.501.483-1.825-1.641-4.38-4.524-5.938-10.233-13.125-16.356-15.41-4.709-2.391-4.207-2.059-9.667-2.059l-5.768-.257Zm1.358 9.677c8.641-.179 18.545 1.811 28.673 8.297l.002.012-5.089 4.231c-.816-1.661-2.327-2.289-4.298-2.307-2.065-.019-4.63.615-7.392 1.381-3.945 1.09-7.29 2.173-8.71 4.163h-6.728c-1.419-1.99-4.762-3.073-8.71-4.162-2.76-.762-5.323-1.397-7.392-1.377-2.006.018-3.543.666-4.346 2.4l-3.638-3.025c.138-.611.308-1.219.513-1.82 3.48-2.084 13.79-7.518 27.115-7.793Zm29.368 14.678c-.187 2.322-.858 4.608-1.984 6.768a5.77 5.77 0 0 1 .841 1.558c.937 2.679.358 5.595-1.158 8.413-1.498 2.789-4.185 5.613-8.625 6.571l-2.24 3.866c-.971 1.674-6.859 3.275-15.38 3.275h-.128c-8.518 0-14.408-1.601-15.379-3.275l-2.219-3.832h-.005c-4.526-.928-7.253-3.785-8.767-6.601-1.514-2.815-2.099-5.734-1.158-8.412a5.882 5.882 0 0 1 .835-1.548 17.98 17.98 0 0 1-1.733-4.999l3.463 2.88c.865 4.294 3.35 8.859 7.286 9.946 5.232 1.444 11.24-3.746 13.368-8.178h6.88c2.128 4.432 8.136 9.621 13.368 8.178 3.984-1.099 6.487-5.767 7.321-10.108l5.414-4.502Zm-7.121 1.094c.661 0 1.194.619 1.194 1.387v2.473c0 .769-.533 1.387-1.194 1.387-.662 0-1.192-.618-1.192-1.387v-2.472c0-.768.53-1.388 1.192-1.388ZM55.294 52.06l-.033.015c-3.227 1.594-5.841 5.124-5.84 7.883 0 2.759 2.614 3.704 5.84 2.112l.037-.016.035.016c3.225 1.591 5.84.648 5.84-2.11s-2.613-6.287-5.84-7.879l-.033-.013-.006-.008Z" style="fill:#b10887;fill-rule:nonzero" transform="matrix(.47918 0 0 .59283 5.137 5.137)"/>
</svg>

<?xml version="1.0" encoding="UTF-8" standalone="no"?>
<!DOCTYPE svg PUBLIC "-//W3C//DTD SVG 1.1//EN" "http://www.w3.org/Graphics/SVG/1.1/DTD/svg11.dtd">
<svg width="100%" height="100%" viewBox="0 0 64 64" version="1.1" xmlns="http://www.w3.org/2000/svg" xmlns:xlink="http://www.w3.org/1999/xlink" xml:space="preserve" xmlns:serif="http://www.serif.com/" style="fill-rule:evenodd;clip-rule:evenodd;stroke-linejoin:round;stroke-miterlimit:2;">
    <g id="ICON" transform="matrix(0.479177,0,0,0.592831,5.13735,5.13735)">
        <g transform="matrix(1.19125,0,0,1.14847,-10.7212,-8.6658)">
            <rect x="0" y="0" width="112.12" height="94" style="fill:#5c288e;"/>
        </g>
        <g transform="matrix(1.08339,0,0,1.08339,-4.67468,-3.77848)">
            <path d="M112.12,22.656C112.12,10.152 99.56,0 84.09,0L28.03,0C12.56,0 0,10.152 0,22.656L0,67.969C0,80.473 12.56,90.625 28.03,90.625L84.09,90.625C99.56,90.625 112.12,80.473 112.12,67.969L112.12,22.656Z" style="fill:#e5b75b;"/>
        </g>
        <path id="path2" d="M56.065,0L56.046,0.01C56.032,0.01 56.019,0.011 56.005,0.012C47.659,0.023 39.325,3.273 33.115,9.27C30.071,12.207 27.563,15.86 25.787,19.916C25.254,19.513 24.72,19.119 24.191,18.709C24.039,15.211 22.166,11.753 19.14,10.004C14.561,7.36 7.878,8.944 5.183,13.614C5.182,13.614 5.181,13.614 5.181,13.614C4.509,14.802 4.091,16.117 3.954,17.474C2.848,18.27 1.92,19.286 1.227,20.459C1.226,20.461 1.225,20.462 1.224,20.464C-1.472,25.133 0.5,31.71 5.078,34.353C5.08,34.355 5.082,34.356 5.085,34.358C8.111,36.097 12.039,35.989 15.141,34.37C17.847,35.477 20.525,36.649 23.173,37.886C23.411,39.777 23.802,41.646 24.344,43.473C23.139,47.928 23.63,52.451 24.881,56.402C21.678,57.93 18.432,59.367 15.148,60.712C12.043,59.093 8.111,58.983 5.085,60.732C5.083,60.732 5.082,60.732 5.081,60.732C0.504,63.372 -1.468,69.954 1.231,74.621C1.231,74.622 1.232,74.624 1.233,74.625C1.916,75.809 2.867,76.811 3.963,77.616C4.102,78.97 4.518,80.281 5.187,81.466C5.189,81.468 5.19,81.47 5.192,81.472C7.889,86.141 14.57,87.725 19.149,85.082C19.15,85.082 19.152,85.081 19.154,85.08C22.176,83.331 24.047,79.872 24.197,76.376C27.524,73.806 30.935,71.347 34.427,69.005C34.778,69.198 35.117,69.398 35.483,69.564L36.6,72.005C37.806,74.629 39.179,75.404 40.466,76.169C41.756,76.933 43.118,77.464 44.669,77.913C47.768,78.811 51.595,79.321 56.061,79.321L56.186,79.321C60.654,79.321 64.476,78.811 67.577,77.913C69.126,77.465 70.494,76.933 71.779,76.169C73.068,75.404 74.442,74.63 75.643,72.005L76.795,69.492C77.105,69.348 77.397,69.169 77.694,69.004C81.187,71.345 84.6,73.804 87.927,76.375C88.078,79.874 89.946,83.33 92.967,85.077C92.97,85.078 92.972,85.079 92.975,85.08C97.551,87.722 104.236,86.14 106.931,81.469C106.932,81.467 106.934,81.465 106.936,81.463C107.607,80.279 108.023,78.968 108.159,77.614C109.267,76.816 110.197,75.796 110.89,74.62C110.891,74.62 110.892,74.619 110.893,74.618C113.588,69.948 111.615,63.369 107.037,60.726C104.01,58.98 100.077,59.086 96.972,60.707C93.687,59.363 90.441,57.925 87.238,56.395C88.491,52.439 88.98,47.912 87.771,43.45C88.312,41.628 88.704,39.765 88.941,37.88C91.592,36.645 94.272,35.473 96.977,34.364C100.082,35.982 104.007,36.092 107.032,34.349C107.034,34.348 107.037,34.348 107.039,34.347C111.617,31.703 113.59,25.127 110.893,20.457C110.893,20.454 110.892,20.451 110.891,20.448C110.207,19.268 109.257,18.266 108.162,17.464C108.012,16.112 107.618,14.788 106.935,13.605C106.934,13.604 106.933,13.602 106.933,13.6C105.218,10.627 101.886,8.704 98.505,8.601C96.569,8.545 94.655,9.028 92.976,9.995C92.975,9.995 92.974,9.995 92.973,9.995C89.948,11.744 88.075,15.198 87.922,18.699C87.394,19.111 86.859,19.501 86.328,19.906C84.552,15.85 82.042,12.198 79.001,9.26C72.78,3.252 64.428,0 56.066,0L56.065,0ZM57.303,14.986C59.492,15.016 61.603,15.231 63.616,15.604C69.611,16.724 74.379,19.184 77.474,21.236C80.6,23.31 82.096,24.973 81.94,25.18C81.732,25.454 79.893,24.253 76.663,22.628C73.461,21.021 68.793,18.977 63.184,18.075C61.227,17.759 59.249,17.588 57.266,17.563C54.07,17.525 50.879,17.834 47.749,18.484C43.15,19.428 39.397,20.896 36.711,22.065C33.981,23.464 32.299,24.177 32.155,23.94C32.011,23.704 33.43,22.548 35.984,20.767C38.559,19.199 42.381,17.351 47.216,16.151C50.515,15.333 53.905,14.941 57.304,14.986L57.303,14.986ZM37.832,70.442C37.818,70.438 37.872,70.45 37.859,70.445C37.872,70.449 37.879,70.455 37.893,70.459L37.832,70.442Z" style="fill:#b10887;fill-rule:nonzero;"/>
        <path id="path4" d="M14.254,16.501C12.43,16.43 10.738,17.344 9.85,18.88C9.065,20.243 9.014,21.92 9.713,23.373C8.108,23.495 6.684,24.377 5.896,25.736C4.563,28.043 5.434,31.079 7.827,32.462C10.116,33.782 13.037,33.151 14.453,31.033C19.112,32.852 23.697,34.855 28.198,37.036C27.683,38.675 27.417,40.353 27.405,42.039C27.41,44.834 28.114,47.602 29.479,50.196C29.125,50.668 28.843,51.191 28.643,51.748C27.704,54.425 28.285,57.34 29.8,60.156C30.131,60.772 30.531,61.386 30.984,61.984C25.676,64.641 20.211,67.123 14.458,69.359C13.043,67.238 10.119,66.606 7.828,67.928C5.435,69.31 4.563,72.346 5.895,74.653C5.895,74.654 5.896,74.655 5.896,74.656C6.683,76.016 8.109,76.899 9.715,77.021C9.018,78.474 9.07,80.15 9.855,81.512C11.187,83.819 14.251,84.581 16.644,83.201C18.931,81.878 19.846,79.033 18.719,76.747C23.955,72.542 29.271,68.779 34.676,65.268C35.798,65.922 37.076,66.452 38.57,66.757L38.571,66.757L40.794,70.591C41.764,72.264 47.652,73.866 56.171,73.866L56.298,73.866C64.818,73.866 70.708,72.264 71.679,70.591L73.919,66.723C75.239,66.439 76.505,65.946 77.669,65.262C83.077,68.774 88.395,72.54 93.633,76.745C92.505,79.031 93.42,81.877 95.708,83.201C95.708,83.201 95.708,83.201 95.708,83.201C98.102,84.583 101.168,83.821 102.5,81.513C102.5,81.513 102.501,81.512 102.501,81.512C103.283,80.151 103.334,78.477 102.637,77.027C104.245,76.905 105.672,76.022 106.459,74.66C106.459,74.659 106.46,74.659 106.46,74.659C107.792,72.351 106.919,69.315 104.526,67.933C102.236,66.612 99.312,67.244 97.897,69.365C92.14,67.126 86.67,64.643 81.359,61.986C81.814,61.385 82.213,60.77 82.543,60.152C84.058,57.334 84.64,54.421 83.702,51.742C83.503,51.182 83.22,50.655 82.861,50.181C84.227,47.59 84.932,44.824 84.94,42.031C84.929,40.35 84.665,38.675 84.154,37.039C88.656,34.859 93.242,32.858 97.902,31.04C99.318,33.158 102.237,33.788 104.526,32.47C106.92,31.088 107.793,28.053 106.462,25.745C105.674,24.385 104.249,23.503 102.643,23.382C103.341,21.929 103.289,20.252 102.504,18.89C101.678,17.46 100.151,16.562 98.458,16.509L98.445,16.5C97.491,16.471 96.539,16.712 95.704,17.194C93.413,18.517 92.497,21.365 93.627,23.652C89.837,26.682 85.932,29.566 81.921,32.297C77.084,24.833 67.084,20.087 56.176,20.077L56.17,20.083C45.263,20.087 35.259,24.826 30.414,32.286C26.407,29.559 22.505,26.679 18.719,23.652C19.848,21.366 18.932,18.518 16.642,17.195C15.911,16.773 15.089,16.534 14.253,16.501L14.254,16.501Z" style="fill:#e5b75b;"/>
        <path id="path6" d="M54.115,19.059C47.644,19.059 40.963,19.62 35.339,25.114C30.773,28.185 27.469,32.202 25.828,36.675C24.712,36.522 19.786,38.585 24.697,42.668C24.689,42.817 24.683,42.969 24.677,43.118C24.681,46.18 25.452,49.211 26.946,52.051C26.557,52.567 26.248,53.139 26.031,53.748C25.003,56.679 25.636,59.871 27.297,62.956C28.958,66.041 31.941,69.171 36.899,70.184L36.901,70.184L39.335,74.387C40.099,75.707 43.694,76.977 49.117,77.588L48.648,77.588L52.41,84.105L56.171,90.623L59.936,84.105L63.697,77.588L63.373,77.588C68.796,76.977 72.389,75.707 73.153,74.387L75.607,70.152C80.471,69.102 83.41,66.008 85.051,62.956C86.712,59.871 87.346,56.676 86.318,53.743C86.1,53.131 85.79,52.557 85.398,52.039C86.893,49.201 87.665,46.172 87.673,43.114C87.665,42.463 87.623,41.812 87.547,41.165C90.491,38.664 88.03,39.34 85.906,36.785C81.382,30.847 75.673,23.66 69.55,21.375C64.841,18.984 65.343,19.316 59.883,19.316L54.115,19.059ZM55.473,28.736C64.114,28.557 74.018,30.547 84.146,37.033L84.148,37.045L79.059,41.276C78.243,39.615 76.732,38.987 74.761,38.969C72.696,38.95 70.131,39.584 67.369,40.35C63.424,41.44 60.079,42.523 58.659,44.513L51.931,44.513C50.512,42.523 47.169,41.44 43.221,40.351C40.461,39.589 37.898,38.954 35.829,38.974C33.823,38.992 32.286,39.64 31.483,41.374L27.845,38.349C27.983,37.738 28.153,37.13 28.358,36.529C31.838,34.445 42.148,29.011 55.473,28.736ZM84.841,43.414C84.654,45.736 83.983,48.022 82.857,50.182C83.226,50.673 83.51,51.201 83.698,51.74C84.635,54.419 84.056,57.335 82.54,60.153C81.042,62.942 78.355,65.766 73.915,66.724L71.675,70.59C70.704,72.264 64.816,73.865 56.295,73.865L56.167,73.865C47.649,73.865 41.759,72.264 40.788,70.59L38.569,66.758L38.564,66.758C34.038,65.83 31.311,62.973 29.797,60.157C28.283,57.342 27.698,54.423 28.639,51.745C28.838,51.19 29.12,50.668 29.474,50.197C28.653,48.625 28.069,46.941 27.741,45.198L31.204,48.078C32.069,52.372 34.554,56.937 38.49,58.024C43.722,59.468 49.73,54.278 51.858,49.846L58.738,49.846C60.866,54.278 66.874,59.467 72.106,58.024C76.09,56.925 78.593,52.257 79.427,47.916L84.841,43.414ZM77.72,44.508C78.381,44.508 78.914,45.127 78.914,45.895L78.914,48.368C78.914,49.137 78.381,49.755 77.72,49.755C77.058,49.755 76.528,49.137 76.528,48.368L76.528,45.896C76.528,45.128 77.058,44.508 77.72,44.508ZM55.294,52.06L55.261,52.075C52.034,53.669 49.42,57.199 49.421,59.958C49.421,62.717 52.035,63.662 55.261,62.07L55.298,62.054L55.333,62.07C58.558,63.661 61.173,62.718 61.173,59.96C61.173,57.202 58.56,53.673 55.333,52.081L55.3,52.068L55.294,52.06Z" style="fill:#b10887;fill-rule:nonzero;"/>
    </g>
</svg>
